public/images/icons/Angular.svg

<svg width="186" height="200" viewBox="0 0 186 200" fill="none" xmlns="http://www.w3.org/2000/svg">
<g clip-path="url(#clip0_215_85)">
<path d="M186 33.6714V35.6579L179.429 140.502C179.428 140.514 179.424 140.524 179.418 140.533C179.411 140.542 179.402 140.549 179.392 140.553C179.381 140.557 179.37 140.559 179.359 140.556C179.349 140.554 179.339 140.549 179.33 140.541C179.27 140.483 179.223 140.417 179.19 140.343C157.727 93.4846 136.778 47.7836 116.342 3.2404C115.923 2.32637 115.54 1.46711 115.194 0.662625C115.135 0.526149 115.173 0.489337 115.307 0.552188L186 33.6714Z" fill="#F50B48"/>
<path d="M8.71807 136.78C8.1273 138.069 7.53874 139.352 6.9524 140.628C6.94901 140.636 6.94361 140.642 6.93673 140.647C6.92986 140.653 6.92174 140.656 6.91317 140.657C6.9046 140.658 6.89587 140.656 6.88785 140.653C6.87982 140.649 6.87276 140.644 6.86737 140.637C6.80714 140.555 6.77614 140.456 6.77437 140.338C6.76241 139.103 6.66941 137.865 6.59103 136.625C4.81074 108.278 3.04064 79.9309 1.28073 51.5825C0.933526 45.9986 0.589869 40.3416 0.249755 34.6114C0.233812 34.3385 0.199712 34.1068 0.147455 33.9165C0.133407 33.8649 0.137844 33.81 0.159978 33.7614C0.182112 33.7128 0.22051 33.6738 0.268355 33.6512C23.7052 22.6631 47.1085 11.6902 70.478 0.732657C70.6392 0.657236 70.8066 0.597977 70.9802 0.554879C70.9926 0.551783 71.0055 0.551949 71.0178 0.555361C71.0301 0.558773 71.0413 0.565318 71.0503 0.57437C71.0594 0.583422 71.066 0.594678 71.0696 0.607064C71.0731 0.61945 71.0735 0.632551 71.0706 0.645115C71.0458 0.752859 71.013 0.851175 70.9723 0.940064C50.2297 46.224 29.4783 91.5039 8.71807 136.78Z" fill="#F50B48"/>
<path d="M67.7464 116.077L93.073 53.6458C93.0933 53.5946 93.1248 53.5865 93.1673 53.6216C93.1903 53.6404 93.2129 53.6781 93.2351 53.7347C101.659 74.4988 110.087 95.2736 118.518 116.059C118.59 116.236 118.531 116.325 118.341 116.325H67.9098C67.7336 116.325 67.6791 116.242 67.7464 116.077Z" fill="#F50B48"/>
<path d="M54.5991 147.609H131.672C131.707 147.609 131.741 147.62 131.77 147.64C131.799 147.659 131.822 147.687 131.836 147.72L141.628 171.737C141.645 171.778 141.646 171.822 141.632 171.864C141.618 171.905 141.59 171.939 141.553 171.961L93.2206 199.888C93.1939 199.904 93.1637 199.912 93.133 199.912C93.1022 199.912 93.072 199.904 93.0453 199.888L44.7172 171.962C44.6799 171.941 44.6517 171.906 44.6378 171.865C44.6238 171.824 44.6251 171.779 44.6414 171.739L54.4357 147.72C54.4491 147.687 54.4717 147.659 54.5008 147.64C54.5299 147.62 54.5641 147.609 54.5991 147.609Z" fill="#F50B48"/>
</g>
<defs>
<clipPath id="clip0_215_85">
<rect width="186" height="200" fill="white"/>
</clipPath>
</defs>
</svg>

<svg width="186" height="200" fill="none" xmlns="http://www.w3.org/2000/svg"><g clip-path="url(#a)" fill="#F50B48"><path d="M186 33.671v1.987l-6.571 104.844a.064.064 0 0 1-.011.031.063.063 0 0 1-.026.02.054.054 0 0 1-.033.003.062.062 0 0 1-.029-.015.632.632 0 0 1-.14-.198c-21.463-46.858-42.412-92.56-62.848-137.103-.419-.914-.802-1.773-1.148-2.577-.059-.137-.021-.174.113-.11L186 33.67ZM8.718 136.78c-.59 1.289-1.18 2.572-1.766 3.848a.045.045 0 0 1-.015.019.042.042 0 0 1-.024.01.055.055 0 0 1-.025-.004.057.057 0 0 1-.02-.016.503.503 0 0 1-.094-.299c-.012-1.235-.105-2.473-.183-3.713-1.78-28.347-3.55-56.694-5.31-85.042C.934 45.999.59 40.342.25 34.61a3.415 3.415 0 0 0-.103-.694.23.23 0 0 1 .121-.266L70.478.733a2.74 2.74 0 0 1 .502-.178.074.074 0 0 1 .07.02.076.076 0 0 1 .02.07 1.533 1.533 0 0 1-.098.295A385797.112 385797.112 0 0 1 8.718 136.78ZM67.746 116.077l25.327-62.431c.02-.051.052-.06.094-.024a.283.283 0 0 1 .068.113l25.283 62.324c.072.177.013.266-.177.266H67.91c-.176 0-.23-.083-.164-.248ZM54.6 147.609h77.072c.035 0 .069.011.098.031a.179.179 0 0 1 .066.08l9.792 24.017a.18.18 0 0 1-.075.224l-48.332 27.927a.17.17 0 0 1-.176 0l-48.328-27.926a.18.18 0 0 1-.076-.223l9.795-24.019a.173.173 0 0 1 .065-.08.174.174 0 0 1 .098-.031Z"/></g><defs><clipPath id="a"><path fill="#fff" d="M0 0h186v200H0z"/></clipPath></defs></svg>
